lib/brands/icons/backbone-js.svg

<svg xmlns="http://www.w3.org/2000/svg" fill="none" aria-hidden="true" viewBox="0 0 48 48"><g id="backbone-js-Icon"><g id="Group"><path id="Vector" fill="#002A41" d="M9.5083 6V25.4696L24.0001 33.7305V28.1151L14.3053 22.5887V13.9083L24.0001 19.4347V14.2609L9.5083 6Z"/><path id="Vector_2" fill="#0071B5" d="M38.4918 6V25.4696L24 33.7305V28.1151L33.6948 22.5887V13.9083L24 19.4347V14.2609L38.4918 6Z"/><path id="Vector_3" fill="#0071B5" d="M9.5083 42V22.5304L24.0001 14.2695V19.8849L14.3053 25.4113V33.6502L24.0001 28.1237V33.7391L9.5083 42Z"/><path id="Vector_4" fill="#002A41" d="M38.4918 42V22.5304L24 14.2695V19.8849L33.6948 25.4113V33.6502L24 28.1237V33.7391L38.4918 42Z"/></g></g></svg>

<svg xmlns="http://www.w3.org/2000/svg" fill="none" aria-hidden="true" viewBox="0 0 48 48"><path fill="#002A41" d="M9.508 6v19.47L24 33.73v-5.615l-9.695-5.526v-8.68L24 19.434V14.26L9.508 6Z"/><path fill="#0071B5" d="M38.492 6v19.47L24 33.73v-5.615l9.695-5.526v-8.68L24 19.434V14.26L38.492 6ZM9.508 42V22.53L24 14.27v5.615l-9.695 5.526v8.24L24 28.123v5.615L9.508 42Z"/><path fill="#002A41" d="M38.492 42V22.53L24 14.27v5.615l9.695 5.526v8.24L24 28.123v5.615L38.492 42Z"/></svg>
